static/img/logo.svg

<svg height="264" viewBox="0 0 264 264" width="264" xmlns="http://www.w3.org/2000/svg"><g fill="none" fill-rule="evenodd" transform="translate(41.948055 10.067533)"><path d="m110.730605 109.430627c1.239984 5.310624-1.51013 11.04744-1.318847 11.518936.602374 1.486639 22.208978 14.864713 18.195388 24.470817-4.011912 9.609461-14.561009.018457-18.264183 1.91451-3.23839 1.661143 3.96493 22.610001 1.664499 33.370516-.748353 3.508535-1.922899 3.808883-5.161289 2.612525-5.8710494-2.166198-11.4786654-4.241788-16.6382761-6.146229-2.328956-.862452-2.6611846-2.506816-3.1846963-4.798858-1.1527326-5.072358-1.9463897-12.829393-3.6914288-13.475393-1.7517508-.644322-7.396281 4.738453-11.5692735 7.842609-1.8826287 1.401065-3.2065093 2.436343-5.5388212 1.573891-5.1612886-1.90612-10.7672267-3.971642-16.6399543-6.139518-3.235034-1.196358-3.9347276-2.189688-2.223247-5.340826 5.2451848-9.674899 24.3365835-20.913622 22.9539756-24.279534-1.5839585-3.852509-15.8311959-3.414572-12.636432-13.32438 2.0084729-6.228447 12.6699905-7.012037 20.6703235-6.918073-2.7417249-18.2692172-5.7603069-107.79307768-8.8309045-111.12710908-3.5823639-3.88606778-23.5748068 2.7366911-33.6255607 6.25361601-12.4518606 4.36259767-31.65232422 14.30764247-33.8822828 17.39669727-2.08397936 2.8843482-.71143901 7.3509771 2.01854039 10.069211 2.73165732 2.7148781 8.77721101-.8859429 13.68681131 5.5572783 4.9096003 6.4448992 3.946473 132.9551985 2.6964209 138.2758895-1.250052 5.320691-12.76395405 8.161414-14.3328113 12.24212-1.57053517 4.084063-.80372472 6.173076 2.38264952 8.763788 3.18637428 2.59239 142.04282528 7.995299 149.04647228 0 8.213429-9.369517 7.257014-57.030897 8.572505-61.744181 1.327236-4.746841 9.946723-5.668021 12.106209-10.351102 2.161164-4.679725 6.033808-14.760681 1.156088-16.005699-10.936697-2.790385-42.728289-3.881034-67.611875-2.211502z" fill="#ec3645"/><path d="m9.80821626 236.479779c0 2.239463.49765854 3.803533 1.49297574 4.656662 1.0308642.817582 2.3816518 1.244146 4.0523627 1.244146.6042997 0 1.1375053-.035547 1.6351639-.106641v-3.625798l-.853129.035547c-1.4218816 0-1.8484461-.746488-1.8484461-2.488293v-19.195402h-7.2871435v3.376969h2.80821626zm15.21413364-.710941c0 4.585568 1.9906343 6.896126 5.9363559 6.896126 2.0972755 0 3.9457216-.782035 4.9410388-1.777352 1.0308642-.995317 1.5285227-1.741805 1.6707109-2.203917h.0710941l-.035547.853129v.675394c0 1.350788.7820349 2.026181 2.3461047 2.026181h4.4789272v-3.341422h-1.741805c-.5332057 0-.7820349-.248829-.7820349-.782034v-14.005535h-7.2871435v3.376969h2.7726692v4.69221c0 1.741805-.4621115 3.23478-1.3863346 4.550021-.9242231 1.279693-2.1328225 1.91954-3.6257982 1.91954-2.1328225 0-2.8437633-1.279693-2.8437633-3.661345v-10.877395h-7.3226905v3.376969h2.8082162zm25.3094934-2.594934c0 2.808216.7109409 5.118774 2.1683696 6.860579 1.4574286 1.741805 3.3769689 2.630481 5.7586206 2.630481 2.7371222 0 4.3367391-1.244147 5.118774-2.203917.6753938-.746488.7109408-.995317.8175819-1.173052h.0710941l-.1066411.817582v.213282c0 1.137505.7464879 1.91954 2.3105577 1.91954h4.2656449v-3.376969h-1.6351639c-.5332056 0-.7820349-.248829-.7820349-.782035v-21.079395h-7.2871434v3.376969h2.8082162v4.585568c0 .497659.0355471.924223.0710941 1.279694h-.0710941l-.1421881-.284377c-.4621116-.639846-2.0261814-2.27501-5.0832269-2.27501-2.4527459 0-4.4789272.853129-6.00745 2.594934s-2.2750107 4.016815-2.2750107 6.896126zm4.5500213 0c0-3.448063 1.9550873-5.616433 4.6211154-5.616433 1.4218816 0 2.5238399.568753 3.2703278 1.670711.7820349 1.101958 1.1730524 2.452746 1.1730524 4.052363 0 3.661345-1.9906344 5.580885-4.5855684 5.580885-2.6660281 0-4.4789272-2.27501-4.4789272-5.687526zm29.290762-12.157088v-4.016816h-4.5500212v4.016816zm2.5949341 21.221583v-3.376969h-2.5949341v-14.752022h-7.3226905v3.376969h2.8082163v11.375053h-2.6304811v3.376969zm15.9961683 0v-3.376969h-2.594934v-4.407833c0-1.812899.391018-3.341422 1.2086-4.656662.817582-1.315241 1.955087-1.990634 3.448063-1.990634 1.955087 0 2.452745 1.31524 2.452745 3.625798v10.8063h7.109409v-3.376969h-2.630481v-4.621115c0-1.812899.391017-3.305875 1.208599-4.550021.817582-1.244147 1.955087-1.883993 3.412516-1.883993 1.955087 0 2.488293 1.244146 2.488293 3.625798v10.8063h7.144955v-3.376969h-2.630481v-8.28246c0-4.585569-1.955087-6.896126-5.829715-6.896126-2.737122 0-5.260962 1.706258-6.291826 3.945721h-.071094c-.675394-2.630481-2.346105-3.945721-5.04768-3.945721-2.737122 0-5.154321 1.91954-6.185185 4.052362h-.0710941l.0710941-.782034v-.817582c0-1.350788-.7820349-2.026182-2.3816518-2.026182h-4.7277565v3.376969h2.0261814c.5332056 0 .7820349.248829.7820349.746488v10.628565h-2.6304811v3.376969zm30.961473-6.469561c0 4.585568 1.990635 6.896126 5.936356 6.896126 2.097276 0 3.945722-.782035 4.941039-1.777352 1.030864-.995317 1.528523-1.741805 1.670711-2.203917h.071094l-.035547.853129v.675394c0 1.350788.782035 2.026181 2.346105 2.026181h4.478927v-3.341422h-1.741805c-.533206 0-.782035-.248829-.782035-.782034v-14.005535h-7.287144v3.376969h2.77267v4.69221c0 1.741805-.462112 3.23478-1.386335 4.550021-.924223 1.279693-2.132823 1.91954-3.625798 1.91954-2.132823 0-2.843764-1.279693-2.843764-3.661345v-10.877395h-7.32269v3.376969h2.808216zm25.273947 2.52384c0 2.914857 4.052362 4.372286 7.358237 4.372286 2.203917 0 4.016816-.462112 5.474244-1.421882 1.457429-.95977 2.16837-2.346105 2.16837-4.08791 0-1.706258-.639847-2.950404-2.026181-3.803533-1.386335-.888676-2.203917-1.208599-4.016816-1.777352-1.670711-.533206-2.417199-.746488-3.234781-1.457429-.391017-.35547-.568752-.782035-.568752-1.244146 0-1.101958 1.101958-1.635164 2.630481-1.635164 1.599616 0 2.666028.6043 2.666028 1.492976v1.030864h3.874627v-2.310558c0-1.244146-.710941-2.168369-2.097275-2.808216-1.386335-.639847-2.843764-.95977-4.44338-.95977-1.919541 0-3.590252.426564-5.012133 1.279693-1.421882.853129-2.132823 2.16837-2.132823 3.910175 0 1.670711.639847 2.914857 1.883994 3.803533 1.279693.853129 2.168369 1.244147 3.83908 1.812899.391017.142188 1.350788.462112 1.670711.6043s1.030864.426565 1.279693.568753c.782035.391017 1.173053.853129 1.173053 1.635164 0 1.173052-1.244147 1.848446-3.092593 1.848446-1.990634 0-3.554704-.710941-3.554704-1.883993v-1.066412h-3.83908z" fill="#f94848"/></g></svg>

<?xml version="1.0" encoding="UTF-8" standalone="no"?>
<svg width="264px" height="264px" viewBox="0 0 264 264" version="1.1" xmlns="http://www.w3.org/2000/svg" xmlns:xlink="http://www.w3.org/1999/xlink">
    <!-- Generator: Sketch 3.8.1 (29687) - http://www.bohemiancoding.com/sketch -->
    <title>logo</title>
    <desc>Created with Sketch.</desc>
    <defs></defs>
    <g id="Page-1" stroke="none" stroke-width="1" fill="none" fill-rule="evenodd">
        <g id="ludimus" transform="translate(41.948055, 10.067533)">
            <path d="M110.730605,109.430627 C111.970589,114.741251 109.220475,120.478067 109.411758,120.949563 C110.014132,122.436202 131.620736,135.814276 127.607146,145.42038 C123.595234,155.029841 113.046137,145.438837 109.342963,147.33489 C106.104573,148.996033 113.307893,169.944891 111.007462,180.705406 C110.259109,184.213941 109.084563,184.514289 105.846173,183.317931 C99.9751236,181.151733 94.3675076,179.076143 89.2078969,177.171702 C86.8789409,176.30925 86.5467123,174.664886 86.0232006,172.372844 C84.870468,167.300486 84.0768109,159.543451 82.3317718,158.897451 C80.580021,158.253129 74.9354908,163.635904 70.7624983,166.74006 C68.8798696,168.141125 67.555989,169.176403 65.2236771,168.313951 C60.0623885,166.407831 54.4564504,164.342309 48.5837228,162.174433 C45.3486888,160.978075 44.6489952,159.984745 46.3604758,156.833607 C51.6056606,147.158708 70.6970593,135.919985 69.3144514,132.554073 C67.7304929,128.701564 53.4832555,129.139501 56.6780194,119.229693 C58.6864923,113.001246 69.3480099,112.217656 77.3483429,112.31162 C74.606618,94.0424028 71.588036,4.51854232 68.5174384,1.18451092 C64.9350745,-2.70155686 44.9426316,3.92120202 34.8918777,7.43812693 C22.4400171,11.8007246 3.23955348,21.7457694 1.0095949,24.8348242 C-1.07438446,27.7191724 0.29815589,32.1858013 3.02813529,34.9040352 C5.75979261,37.6189133 11.8053463,34.0180923 16.7149466,40.4613135 C21.6245469,46.9062127 20.6614196,173.416512 19.4113675,178.737203 C18.1613155,184.057894 6.64741345,186.898617 5.0785562,190.979323 C3.50802103,195.063386 4.27483148,197.152399 7.46120572,199.743111 C10.64758,202.335501 149.504031,207.73841 156.507678,199.743111 C164.721107,190.373594 163.764692,142.712214 165.080183,137.99893 C166.407419,133.252089 175.026906,132.330909 177.186392,127.647828 C179.347556,122.968103 183.2202,112.887147 178.34248,111.642129 C167.405783,108.851744 135.614191,107.761095 110.730605,109.430627 L110.730605,109.430627 Z" id="Fill-2" fill="#EC3645"></path>
            <path d="M9.80821626,236.479779 C9.80821626,238.719242 10.3058748,240.283312 11.301192,241.136441 C12.3320562,241.954023 13.6828438,242.380587 15.3535547,242.380587 C15.9578544,242.380587 16.49106,242.34504 16.9887186,242.273946 L16.9887186,238.648148 L16.1355896,238.683695 C14.713708,238.683695 14.2871435,237.937207 14.2871435,236.195402 L14.2871435,217 L7,217 L7,220.376969 L9.80821626,220.376969 L9.80821626,236.479779 L9.80821626,236.479779 Z M25.0223499,235.768838 C25.0223499,240.354406 27.0129842,242.664964 30.9587058,242.664964 C33.0559813,242.664964 34.9044274,241.882929 35.8997446,240.887612 C36.9306088,239.892295 37.4282673,239.145807 37.5704555,238.683695 L37.6415496,238.683695 L37.6060026,239.536824 L37.6060026,240.212218 C37.6060026,241.563006 38.3880375,242.238399 39.9521073,242.238399 L44.4310345,242.238399 L44.4310345,238.896977 L42.6892295,238.896977 C42.1560238,238.896977 41.9071946,238.648148 41.9071946,238.114943 L41.9071946,224.109408 L34.6200511,224.109408 L34.6200511,227.486377 L37.3927203,227.486377 L37.3927203,232.178587 C37.3927203,233.920392 36.9306088,235.413367 36.0063857,236.728608 C35.0821626,238.008301 33.8735632,238.648148 32.3805875,238.648148 C30.247765,238.648148 29.5368242,237.368455 29.5368242,234.986803 L29.5368242,224.109408 L22.2141337,224.109408 L22.2141337,227.486377 L25.0223499,227.486377 L25.0223499,235.768838 L25.0223499,235.768838 Z M50.3318433,233.173904 C50.3318433,235.98212 51.0427842,238.292678 52.5002129,240.034483 C53.9576415,241.776288 55.8771818,242.664964 58.2588335,242.664964 C60.9959557,242.664964 62.5955726,241.420817 63.3776075,240.461047 C64.0530013,239.714559 64.0885483,239.46573 64.1951894,239.287995 L64.2662835,239.287995 L64.1596424,240.105577 L64.1596424,240.318859 C64.1596424,241.456364 64.9061303,242.238399 66.4702001,242.238399 L70.735845,242.238399 L70.735845,238.86143 L69.1006811,238.86143 C68.5674755,238.86143 68.3186462,238.612601 68.3186462,238.079395 L68.3186462,217 L61.0315028,217 L61.0315028,220.376969 L63.839719,220.376969 L63.839719,224.962537 C63.839719,225.460196 63.8752661,225.88676 63.9108131,226.242231 L63.839719,226.242231 L63.6975309,225.957854 C63.2354193,225.318008 61.6713495,223.682844 58.614304,223.682844 C56.1615581,223.682844 54.1353768,224.535973 52.606854,226.277778 C51.0783312,228.019583 50.3318433,230.294593 50.3318433,233.173904 L50.3318433,233.173904 L50.3318433,233.173904 Z M54.8818646,233.173904 C54.8818646,229.725841 56.8369519,227.557471 59.50298,227.557471 C60.9248616,227.557471 62.0268199,228.126224 62.7733078,229.228182 C63.5553427,230.33014 63.9463602,231.680928 63.9463602,233.280545 C63.9463602,236.94189 61.9557258,238.86143 59.3607918,238.86143 C56.6947637,238.86143 54.8818646,236.58642 54.8818646,233.173904 L54.8818646,233.173904 L54.8818646,233.173904 Z M84.1726266,221.016816 L84.1726266,217 L79.6226054,217 L79.6226054,221.016816 L84.1726266,221.016816 L84.1726266,221.016816 Z M86.7675607,242.238399 L86.7675607,238.86143 L84.1726266,238.86143 L84.1726266,224.109408 L76.8499361,224.109408 L76.8499361,227.486377 L79.6581524,227.486377 L79.6581524,238.86143 L77.0276713,238.86143 L77.0276713,242.238399 L86.7675607,242.238399 L86.7675607,242.238399 Z M102.763729,242.238399 L102.763729,238.86143 L100.168795,238.86143 L100.168795,234.453597 C100.168795,232.640698 100.559813,231.112175 101.377395,229.796935 C102.194977,228.481694 103.332482,227.806301 104.825458,227.806301 C106.780545,227.806301 107.278203,229.121541 107.278203,231.432099 L107.278203,242.238399 L114.387612,242.238399 L114.387612,238.86143 L111.757131,238.86143 L111.757131,234.240315 C111.757131,232.427416 112.148148,230.93444 112.96573,229.690294 C113.783312,228.446147 114.920817,227.806301 116.378246,227.806301 C118.333333,227.806301 118.866539,229.050447 118.866539,231.432099 L118.866539,242.238399 L126.011494,242.238399 L126.011494,238.86143 L123.381013,238.86143 L123.381013,230.57897 C123.381013,225.993401 121.425926,223.682844 117.551298,223.682844 C114.814176,223.682844 112.290336,225.389102 111.259472,227.628565 L111.188378,227.628565 C110.512984,224.998084 108.842273,223.682844 106.140698,223.682844 C103.403576,223.682844 100.986377,225.602384 99.955513,227.735206 L99.8844189,227.735206 L99.955513,226.953172 L99.955513,226.13559 C99.955513,224.784802 99.1734781,224.109408 97.5738612,224.109408 L92.8461047,224.109408 L92.8461047,227.486377 L94.8722861,227.486377 C95.4054917,227.486377 95.654321,227.735206 95.654321,228.232865 L95.654321,238.86143 L93.0238399,238.86143 L93.0238399,242.238399 L102.763729,242.238399 L102.763729,242.238399 Z M133.725202,235.768838 C133.725202,240.354406 135.715837,242.664964 139.661558,242.664964 C141.758834,242.664964 143.60728,241.882929 144.602597,240.887612 C145.633461,239.892295 146.13112,239.145807 146.273308,238.683695 L146.344402,238.683695 L146.308855,239.536824 L146.308855,240.212218 C146.308855,241.563006 147.09089,242.238399 148.65496,242.238399 L153.133887,242.238399 L153.133887,238.896977 L151.392082,238.896977 C150.858876,238.896977 150.610047,238.648148 150.610047,238.114943 L150.610047,224.109408 L143.322903,224.109408 L143.322903,227.486377 L146.095573,227.486377 L146.095573,232.178587 C146.095573,233.920392 145.633461,235.413367 144.709238,236.728608 C143.785015,238.008301 142.576415,238.648148 141.08344,238.648148 C138.950617,238.648148 138.239676,237.368455 138.239676,234.986803 L138.239676,224.109408 L130.916986,224.109408 L130.916986,227.486377 L133.725202,227.486377 L133.725202,235.768838 L133.725202,235.768838 Z M158.999149,238.292678 C158.999149,241.207535 163.051511,242.664964 166.357386,242.664964 C168.561303,242.664964 170.374202,242.202852 171.83163,241.243082 C173.289059,240.283312 174,238.896977 174,237.155172 C174,235.448914 173.360153,234.204768 171.973819,233.351639 C170.587484,232.462963 169.769902,232.14304 167.957003,231.574287 C166.286292,231.041081 165.539804,230.827799 164.722222,230.116858 C164.331205,229.761388 164.15347,229.334823 164.15347,228.872712 C164.15347,227.770754 165.255428,227.237548 166.783951,227.237548 C168.383567,227.237548 169.449979,227.841848 169.449979,228.730524 L169.449979,229.761388 L173.324606,229.761388 L173.324606,227.45083 C173.324606,226.206684 172.613665,225.282461 171.227331,224.642614 C169.840996,224.002767 168.383567,223.682844 166.783951,223.682844 C164.86441,223.682844 163.193699,224.109408 161.771818,224.962537 C160.349936,225.815666 159.638995,227.130907 159.638995,228.872712 C159.638995,230.543423 160.278842,231.787569 161.522989,232.676245 C162.802682,233.529374 163.691358,233.920392 165.362069,234.489144 C165.753086,234.631332 166.712857,234.951256 167.03278,235.093444 C167.352703,235.235632 168.063644,235.520009 168.312473,235.662197 C169.094508,236.053214 169.485526,236.515326 169.485526,237.297361 C169.485526,238.470413 168.241379,239.145807 166.392933,239.145807 C164.402299,239.145807 162.838229,238.434866 162.838229,237.261814 L162.838229,236.195402 L158.999149,236.195402 L158.999149,238.292678 L158.999149,238.292678 Z" fill="#F94848"></path>
        </g>
    </g>
</svg>
